icons/equal-square.svg

<svg width="24" height="24" viewBox="0 0 24 24" fill="none" xmlns="http://www.w3.org/2000/svg">
<path fill-rule="evenodd" clip-rule="evenodd" d="M3.75 9C3.75 6.11421 6.11421 3.75 9 3.75H15C17.8858 3.75 20.25 6.11421 20.25 9V15C20.25 17.8858 17.8858 20.25 15 20.25H9C6.11421 20.25 3.75 17.8858 3.75 15V9ZM9 2.25C5.28579 2.25 2.25 5.28579 2.25 9V15C2.25 18.7142 5.28579 21.75 9 21.75H15C18.7142 21.75 21.75 18.7142 21.75 15V9C21.75 5.28579 18.7142 2.25 15 2.25H9ZM8.25 10C8.25 9.58579 8.58579 9.25 9 9.25H15C15.4142 9.25 15.75 9.58579 15.75 10C15.75 10.4142 15.4142 10.75 15 10.75H9C8.58579 10.75 8.25 10.4142 8.25 10ZM8.25 14C8.25 13.5858 8.58579 13.25 9 13.25H15C15.4142 13.25 15.75 13.5858 15.75 14C15.75 14.4142 15.4142 14.75 15 14.75H9C8.58579 14.75 8.25 14.4142 8.25 14Z" fill="black"/>
</svg>

<svg xmlns="http://www.w3.org/2000/svg" fill="none" viewBox="0 0 24 24">
  <path fill="#000" fill-rule="evenodd" d="M3.75 9c0-2.886 2.364-5.25 5.25-5.25h6c2.886 0 5.25 2.364 5.25 5.25v6c0 2.886-2.364 5.25-5.25 5.25H9c-2.886 0-5.25-2.364-5.25-5.25V9ZM9 2.25C5.286 2.25 2.25 5.286 2.25 9v6c0 3.714 3.036 6.75 6.75 6.75h6c3.714 0 6.75-3.036 6.75-6.75V9c0-3.714-3.036-6.75-6.75-6.75H9ZM8.25 10A.75.75 0 0 1 9 9.25h6a.75.75 0 0 1 0 1.5H9a.75.75 0 0 1-.75-.75Zm0 4a.75.75 0 0 1 .75-.75h6a.75.75 0 0 1 0 1.5H9a.75.75 0 0 1-.75-.75Z" clip-rule="evenodd"/>
</svg>
